public/img/logo--newest.svg

<svg width="250" height="62" viewBox="0 0 250 62" fill="none" xmlns="http://www.w3.org/2000/svg">
<path d="M46.6402 37.3112H34.9678L33.2353 41.0332H25.8281V39.932L39.1523 11.041H42.4081L55.7762 39.932V41.0332H48.3727L46.6402 37.3112ZM40.7673 23.0548L37.4234 30.8364H44.192L40.7673 23.0548Z" fill="white"/>
<path d="M83.4386 25.6356C85.8501 26.8615 86.9917 29.0602 86.9917 31.6847C86.9513 36.8455 83.8203 41.0336 77.7712 41.0336H63.8965V11.4415H76.5452C77.7507 11.423 78.9478 11.6447 80.0666 12.0937C81.1855 12.5426 82.2038 13.2099 83.0621 14.0566C83.9203 14.9032 84.6014 15.9123 85.0656 17.025C85.5298 18.1376 85.7678 19.3316 85.7657 20.5372C85.7657 22.3137 84.8774 24.4683 83.4386 25.6539V25.6356ZM71.2119 18.21V22.9818H75.9836C78.9862 22.9818 78.9862 18.21 75.9396 18.21H71.2119ZM71.2119 29.2915V34.3238H77.261C80.3076 34.3238 80.2672 29.2915 77.2206 29.2915H71.2119Z" fill="white"/>
<path d="M96.1172 41.0335V11.4414H109.148C123.316 11.4818 123.316 33.4648 109.148 33.4648H103.69V41.0372L96.1172 41.0335ZM109.111 18.1916C107.334 18.1475 105.44 18.1916 103.697 18.1916V26.6522H109.111C113.255 26.6522 113.516 18.232 109.111 18.1916Z" fill="white"/>
<path d="M131.633 41.0732H128.924V11.4224H136.665V25.9322L151.641 11.2939H154.39V41.0328H146.565V26.4827L131.633 41.0732Z" fill="white"/>
<path d="M168.771 44.3734H162.531V34.4629H165.534L175.687 11.0264H178.942L189.433 34.4629H192.523V44.3734H186.287V41.1176H168.771V44.3734ZM173.176 34.3932H181.552L177.28 23.6898L173.176 34.3932Z" fill="white"/>
<path d="M220.255 37.3112H208.583L206.847 41.0332H199.443V39.932L212.768 11.041H216.023L229.391 39.932V41.0332H221.988L220.255 37.3112ZM214.383 23.0548L211.039 30.8364H217.807L214.383 23.0548Z" fill="white"/>
<path d="M142.033 56.1881H137.676L136.751 58.1621H135.09V57.9579L139.501 48.5642H140.236L144.62 57.9579V58.1621H142.972L142.033 56.1881ZM139.868 51.0419L138.194 54.8539H141.529L139.868 51.0419ZM147.426 58.1621H145.833V48.6322H149.781C150.807 48.6322 151.624 48.959 152.232 49.6124C152.84 50.2568 153.144 51.051 153.144 51.9949C153.144 52.9207 152.835 53.7058 152.218 54.3502C151.61 54.9855 150.798 55.3031 149.781 55.3031H147.426V58.1621ZM147.399 53.9145H149.781C150.317 53.9145 150.757 53.7284 151.102 53.3563C151.447 52.9751 151.619 52.5077 151.619 51.9541C151.619 51.3914 151.447 50.9285 151.102 50.5654C150.766 50.1933 150.326 50.0073 149.781 50.0073H147.399V53.9145ZM156.552 50.0345H153.788V48.6322H160.868V50.0345H158.104V58.1621H156.552V50.0345ZM161.421 54.2685V52.9887H166.009V54.2685H161.421ZM169.655 48.6322V52.8526C170.599 52.8526 171.221 52.7755 171.52 52.6212C171.774 52.485 171.979 52.2354 172.133 51.8724C172.287 51.5003 172.446 50.9965 172.609 50.3612C172.8 49.6714 173.127 49.1723 173.59 48.8637C174.053 48.546 174.738 48.4734 175.645 48.6458V49.735C175.155 49.6987 174.801 49.7531 174.583 49.8983C174.375 50.0345 174.202 50.3431 174.066 50.8241C173.721 52.0857 173.308 52.9343 172.827 53.3699L175.959 57.9307V58.1621H174.161L171.439 53.9962C171.166 54.096 170.572 54.1459 169.655 54.1459V58.1621H168.062V48.6322H169.655ZM180.867 51.2053L177.886 58.1621H176.361V57.9443L180.527 48.5778H181.208L185.387 57.9443V58.1621H183.849L180.881 51.2053H180.867ZM192.501 56.1881H188.144L187.219 58.1621H185.558V57.9579L189.969 48.5642H190.704L195.088 57.9579V58.1621H193.44L192.501 56.1881ZM190.336 51.0419L188.662 54.8539H191.997L190.336 51.0419ZM195.45 53.4108C195.45 51.9223 195.918 50.7379 196.853 49.8575C197.796 48.968 198.945 48.5233 200.297 48.5233C200.941 48.5233 201.549 48.6368 202.121 48.8637C202.702 49.0906 203.219 49.4491 203.673 49.9392C204.127 50.4293 204.436 51.0192 204.599 51.709H203.074C202.611 50.5654 201.681 49.9846 200.283 49.9664C199.312 49.9664 198.527 50.2886 197.928 50.933C197.338 51.5683 197.043 52.3943 197.043 53.4108C197.043 54.3728 197.343 55.1806 197.942 55.8341C198.55 56.4876 199.33 56.8143 200.283 56.8143C200.955 56.8143 201.54 56.6509 202.04 56.3242C202.548 55.9975 202.906 55.5255 203.115 54.9083H204.653C204.427 56.0065 203.9 56.8415 203.074 57.4133C202.257 57.976 201.327 58.2574 200.283 58.2574C198.931 58.2574 197.787 57.8218 196.853 56.9505C195.918 56.0701 195.45 54.8902 195.45 53.4108ZM208.123 50.0345H205.36V48.6322H212.439V50.0345H209.675V58.1621H208.123V50.0345ZM219.677 48.6322V50.0209H215.47V52.5395H219.445V53.9417H215.47V56.719H219.758V58.1621H213.877V48.6322H219.677ZM223.327 58.1621H221.734V48.6322H225.682C226.708 48.6322 227.525 48.959 228.133 49.6124C228.741 50.2568 229.045 51.051 229.045 51.9949C229.045 52.9207 228.737 53.7058 228.119 54.3502C227.511 54.9855 226.699 55.3031 225.682 55.3031H223.327V58.1621ZM223.3 53.9145H225.682C226.218 53.9145 226.658 53.7284 227.003 53.3563C227.348 52.9751 227.52 52.5077 227.52 51.9541C227.52 51.3914 227.348 50.9285 227.003 50.5654C226.667 50.1933 226.227 50.0073 225.682 50.0073H223.3V53.9145Z" fill="#FF9015"/>
<path d="M248.99 11.4191C248.991 13.6791 248.321 15.8885 247.066 17.7678C245.81 19.6471 244.026 21.1117 241.938 21.9764C239.85 22.8411 237.552 23.067 235.336 22.6255C233.119 22.1839 231.084 21.0949 229.486 19.496C227.889 17.8972 226.802 15.8605 226.363 13.6436C225.923 11.4267 226.151 9.12935 227.018 7.04215C227.885 4.95495 229.351 3.17176 231.231 1.91821C233.112 0.664664 235.322 -0.00289532 237.582 9.43946e-06C239.082 9.43946e-06 240.566 0.295372 241.952 0.869237C243.337 1.4431 244.596 2.28423 245.657 3.34459C246.717 4.40496 247.558 5.66379 248.132 7.04922C248.706 8.43465 249.001 9.91955 249.001 11.4191" fill="#F29400"/>
<path d="M0 18.1621V11.3936H22.8382V18.1621H15.1851V41.0113H7.69717V18.1621H0Z" fill="white"/>
</svg>

<svg width="250" height="62" fill="none" xmlns="http://www.w3.org/2000/svg"><path d="M46.64 37.311H34.968l-1.733 3.722h-7.407v-1.101l13.324-28.891h3.256l13.368 28.891v1.101h-7.403l-1.733-3.722zm-5.873-14.256l-3.344 7.781h6.769l-3.425-7.781zm42.672 2.581c2.411 1.226 3.553 3.424 3.553 6.049-.04 5.16-3.172 9.349-9.22 9.349H63.895V11.44h12.65a9.08 9.08 0 019.22 9.096c0 1.777-.889 3.931-2.327 5.117v-.018zM71.212 18.21v4.772h4.772c3.002 0 3.002-4.772-.044-4.772h-4.728zm0 11.081v5.033h6.049c3.047 0 3.006-5.032-.04-5.032h-6.01zm24.905 11.742V11.441h13.031c14.168.04 14.168 22.024 0 22.024h-5.458v7.572l-7.573-.004zm12.994-22.841c-1.777-.044-3.671 0-5.414 0v8.46h5.414c4.144 0 4.405-8.42 0-8.46zm22.522 22.881h-2.709v-29.65h7.741v14.51l14.976-14.64h2.749v29.74h-7.825v-14.55l-14.932 14.59zm37.138 3.3h-6.24v-9.91h3.003l10.153-23.437h3.255l10.491 23.437h3.09v9.91h-6.236v-3.255h-17.516v3.255zm4.405-9.98h8.376L177.28 23.69l-4.104 10.703zm47.079 2.918h-11.672l-1.736 3.722h-7.404v-1.101l13.325-28.891h3.255l13.368 28.891v1.101h-7.403l-1.733-3.722zm-5.872-14.256l-3.344 7.781h6.768l-3.424-7.781z" fill="#fff"/><path d="M142.033 56.188h-4.357l-.925 1.974h-1.661v-.204l4.411-9.394h.735l4.384 9.394v.204h-1.648l-.939-1.974zm-2.165-5.146l-1.674 3.812h3.335l-1.661-3.812zm7.558 7.12h-1.593v-9.53h3.948c1.026 0 1.843.327 2.451.98.608.645.912 1.439.912 2.383 0 .926-.309 1.71-.926 2.355-.608.636-1.42.953-2.437.953h-2.355v2.86zm-.027-4.248h2.382c.536 0 .976-.186 1.321-.558.345-.38.517-.848.517-1.402 0-.563-.172-1.026-.517-1.389-.336-.372-.776-.558-1.321-.558h-2.382v3.907zm9.153-3.88h-2.764v-1.402h7.08v1.403h-2.764v8.127h-1.552v-8.127zm4.869 4.235v-1.28h4.588v1.28h-4.588zm8.234-5.637v4.22c.944 0 1.566-.076 1.865-.23.254-.137.459-.387.613-.75.154-.372.313-.876.476-1.51.191-.69.518-1.19.981-1.498.463-.318 1.148-.39 2.055-.218v1.089c-.49-.036-.844.018-1.062.163-.208.136-.381.445-.517.926-.345 1.262-.758 2.11-1.239 2.546l3.132 4.56v.232h-1.798l-2.722-4.166c-.273.1-.867.15-1.784.15v4.016h-1.593v-9.53h1.593zm11.212 2.573l-2.981 6.957h-1.525v-.218l4.166-9.366h.681l4.179 9.366v.218h-1.538l-2.968-6.957h-.014zm11.634 4.983h-4.357l-.925 1.974h-1.661v-.204l4.411-9.394h.735l4.384 9.394v.204h-1.648l-.939-1.974zm-2.165-5.146l-1.674 3.812h3.335l-1.661-3.812zm5.114 2.369c0-1.489.468-2.673 1.403-3.553.943-.89 2.092-1.335 3.444-1.335.644 0 1.252.114 1.824.34a4.17 4.17 0 011.552 1.076c.454.49.763 1.08.926 1.77h-1.525c-.463-1.144-1.393-1.724-2.791-1.743-.971 0-1.756.323-2.355.967-.59.635-.885 1.461-.885 2.478 0 .962.3 1.77.899 2.423.608.654 1.388.98 2.341.98.672 0 1.257-.163 1.757-.49.508-.326.866-.798 1.075-1.416h1.538c-.226 1.099-.753 1.934-1.579 2.505-.817.563-1.747.844-2.791.844-1.352 0-2.496-.435-3.43-1.306-.935-.88-1.403-2.06-1.403-3.54zm12.673-3.377h-2.763v-1.402h7.079v1.403h-2.764v8.127h-1.552v-8.127zm11.554-1.402v1.389h-4.207v2.518h3.975v1.403h-3.975v2.777h4.288v1.443h-5.881v-9.53h5.8zm3.65 9.53h-1.593v-9.53h3.948c1.026 0 1.843.327 2.451.98.608.645.912 1.439.912 2.383 0 .926-.308 1.71-.926 2.355-.608.636-1.42.953-2.437.953h-2.355v2.86zm-.027-4.248h2.382c.536 0 .976-.186 1.321-.558.345-.38.517-.848.517-1.402 0-.563-.172-1.026-.517-1.389-.336-.372-.776-.558-1.321-.558H223.3v3.907z" fill="#FF9015"/><path d="M248.99 11.42A11.423 11.423 0 11237.582 0a11.42 11.42 0 0111.419 11.42" fill="#F29400"/><path d="M0 18.162v-6.768h22.838v6.768h-7.653v22.85H7.697v-22.85H0z" fill="#fff"/></svg>
